!!!COM: Lasso
!!!OTL: Qui sequitur me
!!!OMV: Partie 1
**kern	**text	**kern	**text
*part2	*part2	*part1	*part1
*staff2	*staff2	*staff1	*staff1
*I"Altus	*	*I"Cantus	*
*clefC3	*	*clefC2	*
*k[b-]	*	*k[b-]	*
*F:	*	*F:	*
*M4/2	*	*M4/2	*
=1	=1	=1	=1
1r	.	1.c	Qui
1A	Qui	.	.
.	.	2d.	se-
=2	=2	=2	=2
2.B-	se-	.	.
.	.	4d	-qui-
.	.	1e	-tur
4B-	-qui-	.	.
1c	-tur	.	.
.	.	2c	me,
=3	=3	=3	=3
1A	me,	2r	.
.	.	1a	qui
1f	qui	.	.
.	.	2f.	se-
=4	=4	=4	=4
2.d	se-	.	.
.	.	4f	-qui-
.	.	1d	-tur
4d	-qui-	.	.
1B-	-tur	.	.
.	.	2B-	me,
=5	=5	=5	=5
1G	me,	2r	.
.	.	1e	qui
1c	qui	.	.
.	.	2c.	se-
=6	=6	=6	=6
2.A	se-	.	.
.	.	4c	-qui-
.	.	2d	-tur
4A	-qui-	.	.
2B-	-tur	2.e	me,
2c.	me,	.	.
.	.	4d	.
=7	=7	=7	=7
.	.	4c	.
4B-	.	4B-	.
4A	.	2A	.
4G	.	.	.
1F	.	2r	.
.	.	2a	non
=8	=8	=8	=8
2r	.	1.f	am-
2f	non	.	.
1d.	am-	.	.
.	.	2g	-bu-
=9	=9	=9	=9
.	.	1f	-lat,
2c#X	-bu-	.	.
1d	-lat,	2r	.
.	.	2f	non
=10	=10	=10	=10
2r	.	1.d	am-
2d	non	.	.
1A.	am-	.	.
.	.	2c	-bu-
=11	=11	=11	=11
.	.	1d	-lat
2B-	-bu-	.	.
2A	-lat	2.a	in
2F.	-in	.	.
.	.	4g	.
=12	=12	=12	=12
.	.	4f	.
4G	.	4e	.
4A	.	2d	.
4B-	.	.	.
4c	.	4c	te-
4A	.	4d	.
4B-	.	4e	.
4c	.	4c	.
=13	=13	=13	=13
1d	.	4d	.
.	.	4e	.
.	.	1f	.
2.B-	te-	.	.
.	.	2e	-ne-
4B-	-ne-	.	.
=14	=14	=14	=14
1A	-bris	0f.	-bris,
2r	.	.	.
1f	sed	.	.
=15	=15	=15	=15
.	.	.	.
2d	ha-	.	.
2.f	-be-	2r	.
.	.	1f	sed
4e	.	.	.
=16	=16	=16	=16
4d	.	.	.
4c	.	.	.
4d	.	2d	ha-
4e	.	.	.
2f	.	2.f	-be-
2d	-bit,	.	.
.	.	4e	.
=17	=17	=17	=17
2r	.	4d	.
.	.	4c	.
2a	sed	4d	.
.	.	4e	.
2f	ha-	2f	.
2a.	-be-	2d	-bit,
=18	=18	=18	=18
.	.	1a	sed
4g	.	.	.
4f	.	.	.
4e	.	.	.
2.f	.	2f	ha-
.	.	2a.	-be-
4g	.	.	.
=19	=19	=19	=19
4a	.	.	.
4g	.	4g	.
4f	.	4f	.
4e	.	4e	.
4d	.	2f	.
4c	.	.	.
2d	.	1d	-bit
=20	=20	=20	=20
2B-	-bit	.	.
4G	lu-	2g.	lu-
4A	.	.	.
4B-	.	.	.
4c	.	8fL	.
.	.	8eJ	.
4d	.	4d	.
4e	.	4e	.
=21	=21	=21	=21
2.f	.	4f	.
.	.	4g	.
.	.	2a.	.
4e	.	.	.
2f	.	.	.
.	.	4f	.
2d.	-men	2g	.
=22	=22	=22	=22
.	.	2.f	-men
4c	.	.	.
4d	.	.	.
4e	.	4e	.
4f	.	4f	.
4d	.	4g	.
4e	.	4a	.
4f	.	4f	.
=23	=23	=23	=23
4g	.	2g	.
4d	.	.	.
2f	.	4f	vi-
.	.	4g	.
2f	vi-	4a	.
.	.	4f	.
4e	.	2b-.	.
4d	.	.	.
=24	=24	=24	=24
1e	.	.	.
.	.	8aL	.
.	.	8gJ	.
.	.	2a	.
0d	-tae:	1b-	-tac:
=25	=25	=25	=25
.	.	2r	.
.	.	2f	di-
2r	.	2g	-cit-
2e	di-	2a.	-Do-
=26	=26	=26	=26
2f	-cit	.	.
.	.	8gL	.
.	.	8fJ	.
2g.	Do-	4g	.
.	.	4e	.
.	.	2.f	.
8fL	.	.	.
8eJ	.	.	.
4f	.	.	.
4d	.	4f	-mo-
=27	=27	=27	=27
2.e	.	2e	-nus,
.	.	2a.	di-
4e	-mi-	.	.
2d	-nus,	.	.
.	.	8gL	.
.	.	8fJ	.
2g.	di-	2g	.
=28	=28	=28	=28
.	.	2.f	-cit
8fL	.	.	.
8eJ	.	.	.
2f	.	.	.
.	.	4g	.
2.e	-cit	2a	.
.	.	4e	Do-
4f	.	4f	.
=29	=29	=29	=29
2g	.	4g	.
.	.	4a	.
4G	Do-	2b-.	.
4A	.	.	.
4B-	.	.	.
4c	.	4a	.
2d.	.	4g	.
.	.	4f	.
=30	=30	=30	=30
.	.	4g	.
4c	.	4f	.
4B-	.	4e	.
4A	.	4d	.
4G	.	4g	.
4F	.	4a	.
4B-	.	4b-	.
4c	.	4a	.
=31	=31	=31	=31
4d	.	4g	.
4c	.	4f	.
4c	.	1f	.
8B-L	.	.	.
8AJ	.	.	.
2B-	.	.	.
2B-	-mi-	2e	-mi-
=32	=32	=32	=32
0A	-nus.	0f	-nus.
==	==	==	==
*-	*-	*-	*-
!!!system-decoration: s1,s2